packages/dnb-ui-lib/assets/icons/account_medium.svg

<svg width="24" height="24" viewBox="0 0 24 24" fill="none" xmlns="http://www.w3.org/2000/svg">
<path d="M8.24998 7.49999H15M14.6222 9.74998H8.6278C6.257 11.5194 3.74999 14.4191 3.74999 17.25C3.74999 21.1674 5.6953 23.25 11.625 23.25C17.5547 23.25 19.5 21.1674 19.5 17.25C19.5 14.4191 16.993 11.5194 14.6222 9.74998ZM16.5 0.749999L7.49999 2.25C7.49999 2.25 8.99998 3.06818 8.99998 5.24999H13.875C13.875 3.06818 16.5 0.749999 16.5 0.749999Z" stroke="black" stroke-width="1.5" stroke-linecap="round" stroke-linejoin="round"/>
<path d="M10.799 19.4999H12.374L10.43 16.9889L12.239 14.9999H10.628L9.31398 16.6379V13.1999H7.99998V19.4999H9.31398V18.2129L9.63798 17.8529L10.799 19.4999Z" fill="black"/>
<path d="M15.45 14.9099C14.874 14.9099 14.379 15.2159 14.127 15.6839V14.9999H12.957V19.4999H14.271V17.0429C14.271 16.3859 14.658 16.0439 15.423 16.0439C15.612 16.0439 15.783 16.0619 15.918 16.0889V14.9639C15.837 14.9369 15.657 14.9099 15.45 14.9099Z" fill="black"/>
</svg>

<svg width="24" height="24" viewBox="0 0 24 24" fill="none" xmlns="http://www.w3.org/2000/svg"><path d="M8.25 7.5H15m-.378 2.25H8.628c-2.371 1.77-4.878 4.67-4.878 7.5 0 3.917 1.945 6 7.875 6s7.875-2.083 7.875-6c0-2.83-2.507-5.73-4.878-7.5zm1.878-9l-9 1.5s1.5.818 1.5 3h4.875c0-2.182 2.625-4.5 2.625-4.5z" stroke="#000" stroke-width="1.5" stroke-linecap="round" stroke-linejoin="round"/><path d="M10.799 19.5h1.575l-1.944-2.511 1.809-1.99h-1.611l-1.314 1.639V13.2H8v6.3h1.314v-1.287l.324-.36 1.161 1.647zm4.651-4.59c-.576 0-1.071.306-1.323.774V15h-1.17v4.5h1.314v-2.457c0-.657.387-1 1.152-1 .189 0 .36.019.495.046v-1.125a1.733 1.733 0 00-.468-.054z" fill="#000"/></svg>
